build/assets/images/svg/icons/menu/b-basket.svg

<svg width="20" height="20" viewBox="0 0 20 20" fill="none" xmlns="http://www.w3.org/2000/svg">
<path fill-rule="evenodd" clip-rule="evenodd" d="M5.257 3.60075C5.11492 3.60044 4.97795 3.61653 4.84781 3.6471C4.66939 3.25387 4.43373 2.90107 4.16569 2.63303C3.71075 2.17809 2.99324 1.99872 2 1.99872V3.59872C2.60676 3.59872 2.95592 3.68601 3.03431 3.7644C3.33669 4.06678 3.6 4.68117 3.6 5.19872L3.60804 5.31186L4.39194 10.7991C3.08028 10.8672 2.06416 11.8858 2.00098 13.1591L2 13.9987C2.07746 15.3139 3.0902 16.3255 4.35459 16.3974L4.53621 16.3977C4.86539 17.3304 5.75465 17.9987 6.8 17.9987C7.84498 17.9987 8.73397 17.3309 9.06344 16.3987H10.9366C11.266 17.3309 12.155 17.9987 13.2 17.9987C14.5255 17.9987 15.6 16.9242 15.6 15.5987C15.6 14.2732 14.5255 13.1987 13.2 13.1987C12.155 13.1987 11.266 13.8666 10.9366 14.7987H9.06344C8.73397 13.8666 7.84498 13.1987 6.8 13.1987C5.75502 13.1987 4.86603 13.8666 4.53656 14.7987H4.4C3.99201 14.7742 3.62603 14.4086 3.59856 13.9508L3.6 13.1987C3.62157 12.7838 3.98505 12.4203 4.43964 12.3977L6.01895 12.3981L6.0304 12.3987H14.0935L14.2116 12.3612C14.8181 12.1688 15.3037 11.712 15.5336 11.1207L15.6179 10.9539L15.8917 10.4114C16.175 9.84985 16.4583 9.28732 16.7344 8.73776C17.4106 7.39158 17.8358 6.53605 17.93 6.32596C18.4136 5.24708 17.4339 4.41669 16.4326 4.39901L5.257 3.60075ZM13.8158 10.8013H6.09051C6.03914 10.787 5.99999 10.7435 5.99233 10.6893L5.20842 5.20184L16.3149 5.9972C16.1206 6.39351 15.7673 7.10138 15.3048 8.02213L15.2932 8.0452C15.0292 8.57074 14.7463 9.1325 14.4634 9.69332L14.1899 10.2351L14.0863 10.4403L14.0472 10.531C14.0054 10.6475 13.9225 10.7431 13.8158 10.8013ZM13.2 16.3917C13.6418 16.3917 14 16.0335 14 15.5917C14 15.1499 13.6418 14.7917 13.2 14.7917C12.7582 14.7917 12.4 15.1499 12.4 15.5917C12.4 16.0335 12.7582 16.3917 13.2 16.3917ZM7.59984 15.5917C7.59984 16.0335 7.24167 16.3917 6.79984 16.3917C6.35801 16.3917 5.99984 16.0335 5.99984 15.5917C5.99984 15.1499 6.35801 14.7917 6.79984 14.7917C7.24167 14.7917 7.59984 15.1499 7.59984 15.5917Z" fill="#203686"/>
</svg>

<svg width="20" height="20" fill="none" xmlns="http://www.w3.org/2000/svg"><path fill-rule="evenodd" clip-rule="evenodd" d="M5.257 3.6a1.77 1.77 0 00-.41.047 3.475 3.475 0 00-.681-1.014C3.71 2.178 2.993 1.999 2 1.999v1.6c.607 0 .956.087 1.034.165.303.303.566.917.566 1.435l.008.113.784 5.487C3.08 10.867 2.064 11.886 2 13.16V14c.077 1.315 1.09 2.327 2.355 2.398h.181a2.401 2.401 0 004.527.002h1.874a2.4 2.4 0 100-1.6H9.063a2.401 2.401 0 00-4.526 0H4.4c-.408-.025-.774-.39-.801-.848L3.6 13.2c.022-.415.385-.779.84-.801h9.654l.118-.037a2.1 2.1 0 001.322-1.24l.084-.167.274-.543.842-1.673a125.223 125.223 0 001.196-2.412c.484-1.079-.496-1.91-1.497-1.927L5.257 3.601zm8.559 7.201H6.09a.136.136 0 01-.099-.112l-.784-5.487 11.107.795a276.05 276.05 0 01-1.01 2.025l-.012.023-.83 1.648-.273.542-.104.205-.039.091a.5.5 0 01-.231.27zm-.616 5.59a.8.8 0 100-1.6.8.8 0 000 1.6zm-5.6-.8a.8.8 0 11-1.6 0 .8.8 0 011.6 0z" fill="#203686"/></svg>
